lib/brands/icons/google-discover.svg

<svg xmlns="http://www.w3.org/2000/svg" fill="none" aria-hidden="true" viewBox="0 0 48 48"><g id="google-discover-Icon"><g id="Group"><path id="Vector" fill="#FBBC01" d="M9.38297 13.2042L17.4775 21.2987H6V26.6899H17.4775L21.3861 22.8082V17.39L13.2916 9.29568L9.38297 13.2042Z"/><path id="Vector_2" fill="#EB4435" d="M21.3203 22.781L30.6243 21.309L38.7187 13.2146L34.8101 9.30596L26.7157 17.4004V6H21.3243L21.3203 22.781Z"/><path id="Vector_3" fill="#38A752" d="M9.3252 34.7814L13.2338 38.6925L21.3284 30.5936V42H26.7196V30.5937L21.3203 22.781L9.3252 34.7814Z"/><path id="Vector_4" fill="#4886F4" d="M21.2919 25.1818L34.7826 38.6674L38.6927 34.7588L30.5956 26.6643H41.9998V21.2731H23.1658C20.6313 21.7553 20.6721 23.7099 21.2919 25.1818V25.1818Z"/></g></g></svg>

<svg xmlns="http://www.w3.org/2000/svg" fill="none" aria-hidden="true" viewBox="0 0 48 48"><path fill="#FBBC01" d="m9.383 13.204 8.095 8.095H6v5.39h11.477l3.91-3.88V17.39l-8.095-8.094-3.909 3.908Z"/><path fill="#EB4435" d="m21.32 22.781 9.304-1.472 8.095-8.094-3.909-3.909-8.094 8.094V6h-5.392l-.004 16.781Z"/><path fill="#38A752" d="m9.325 34.781 3.909 3.912 8.094-8.1V42h5.392V30.594l-5.4-7.813-11.995 12Z"/><path fill="#4886F4" d="m21.292 25.182 13.49 13.485 3.91-3.908-8.096-8.095H42v-5.39H23.166c-2.535.481-2.494 2.436-1.874 3.908Z"/></svg>
